assets/svg/1F515.svg

<svg xmlns="http://www.w3.org/2000/svg" viewBox="0 0 64 64" enable-background="new 0 0 64 64"><ellipse fill="#b0782c" cx="31.15" cy="48.636" rx="31.15" ry="5.412"/><path fill="#825523" d="m54.53 44.86c0-2.99-10.06-5.408-22.478-5.408-12.411 0-22.473 2.418-22.473 5.408s10.06 5.412 22.473 5.412c12.416 0 22.478-2.421 22.478-5.412"/><path fill="#fbb042" d="m38.17 5.422c0 2.996-3.146 5.424-7.02 5.424-3.884 0-7.03-2.428-7.03-5.424 0-2.996 3.142-5.422 7.03-5.422 3.876 0 7.02 2.426 7.02 5.422"/><path fill="#e09732" d="m30.05 4.164c0-1.577.758-3.01 2-4.115-.295-.029-.59-.049-.897-.049-3.884 0-7.03 2.426-7.03 5.422 0 2.996 3.142 5.424 7.03 5.424 1.427 0 2.756-.33 3.865-.896-2.92-.951-4.97-3.187-4.97-5.786"/><path fill="#fbb042" d="m33.594 45.859v-5.875c0-1.042-1.093-1.886-2.442-1.886-1.353 0-2.446.844-2.446 1.886v5.875c-2.675.767-4.58 2.749-4.58 5.078 0 2.998 3.142 5.424 7.03 5.424 3.876 0 7.02-2.426 7.02-5.424 0-2.329-1.905-4.311-4.58-5.078"/><path fill="#e09732" d="m26.894 50.938c0-2.329 1.913-4.312 4.581-5.078v-5.875c0-.646.424-1.213 1.062-1.551-.397-.214-.871-.335-1.384-.335-1.353 0-2.446.844-2.446 1.886v5.875c-2.675.767-4.58 2.749-4.58 5.078 0 2.998 3.142 5.424 7.03 5.424.474 0 .937-.039 1.384-.104-3.217-.499-5.643-2.693-5.643-5.32"/><path fill="#fbb042" d="m31.15 43.822c10.688 0 20.658 1.01 29.1 2.753-2.268-2.415-4.705-7.088-8.15-18.18-6.839-22.04-12.963-20.29-12.963-20.29-.844-.229-1.648-.404-2.43-.558-1.163-.303-2.963-.616-5.334-.606-.074-.004-.148-.002-.222-.002-.078 0-.148-.002-.226.002-2.368-.001-4.168.303-5.331.606-.782.154-1.586.329-2.434.558 0 0-6.12-1.746-12.963 20.29-3.441 11.09-5.883 15.769-8.146 18.18 8.442-1.742 18.411-2.753 29.1-2.753"/><path fill="#e09732" d="m23.601 30.965c1.326-22.633 7.765-21.814 7.765-21.814.777-.348 1.52-.636 2.251-.904.614-.268 1.446-.571 2.484-.842-1.147-.25-2.729-.47-4.728-.464-.074-.004-.148-.002-.222-.002-.078 0-.148-.002-.226.002-2.368-.001-4.168.303-5.331.606-.782.154-1.586.329-2.434.558 0 0-6.12-1.746-12.963 20.29-3.441 11.09-5.883 15.769-8.146 18.18 6.01-1.24 12.8-2.1 20.06-2.5.636-3.03 1.137-7.201 1.487-13.11"/><path fill="#df394c" d="m60.34 44.896c2.741 1.979 4.172 4.666 3.212 6.01l0 0c-.969 1.342-3.975.828-6.715-1.143l-53.13-38.3c-2.737-1.973-4.176-4.664-3.208-6.01l0 0c.969-1.343 3.974-.83 6.715 1.143l53.13 38.3"/></svg>

<?xml version="1.0" encoding="UTF-8" standalone="no"?>
<!-- Generator: Adobe Illustrator 16.0.0, SVG Export Plug-In . SVG Version: 6.00 Build 0)  -->

<svg
   xmlns:dc="http://purl.org/dc/elements/1.1/"
   xmlns:cc="http://creativecommons.org/ns#"
   xmlns:rdf="http://www.w3.org/1999/02/22-rdf-syntax-ns#"
   xmlns:svg="http://www.w3.org/2000/svg"
   xmlns="http://www.w3.org/2000/svg"
   xmlns:sodipodi="http://sodipodi.sourceforge.net/DTD/sodipodi-0.dtd"
   xmlns:inkscape="http://www.inkscape.org/namespaces/inkscape"
   version="1.1"
   id="Layer_1"
   x="0px"
   y="0px"
   width="64px"
   height="64px"
   viewBox="0 0 64 64"
   enable-background="new 0 0 64 64"
   xml:space="preserve"
   inkscape:version="0.48.5 r10040"
   sodipodi:docname="1F515.svg"
   inkscape:export-filename="D:\TESTINGEMOJI\SVGTEST\1F515.png"
   inkscape:export-xdpi="90"
   inkscape:export-ydpi="90"><metadata
   id="metadata4965"><rdf:RDF><cc:Work
       rdf:about=""><dc:format>image/svg+xml</dc:format><dc:type
         rdf:resource="http://purl.org/dc/dcmitype/StillImage" /><dc:title></dc:title></cc:Work></rdf:RDF></metadata><defs
   id="defs4963" /><sodipodi:namedview
   pagecolor="#ffffff"
   bordercolor="#666666"
   borderopacity="1"
   objecttolerance="10"
   gridtolerance="10"
   guidetolerance="10"
   inkscape:pageopacity="0"
   inkscape:pageshadow="2"
   inkscape:window-width="640"
   inkscape:window-height="480"
   id="namedview4961"
   showgrid="false"
   inkscape:zoom="3.6875"
   inkscape:cx="32"
   inkscape:cy="32"
   inkscape:window-x="390"
   inkscape:window-y="358"
   inkscape:window-maximized="0"
   inkscape:current-layer="Layer_1" />
<g
   id="g4939">
	<g
   id="g4941">
		<ellipse
   fill="#B0782C"
   cx="31.152"
   cy="48.636"
   rx="31.152"
   ry="5.412"
   id="ellipse4943" />
		<path
   fill="#825523"
   d="M54.531,44.86c0-2.99-10.062-5.408-22.478-5.408c-12.411,0-22.473,2.418-22.473,5.408    s10.062,5.412,22.473,5.412C44.469,50.272,54.531,47.851,54.531,44.86z"
   id="path4945" />
		<path
   fill="#FBB042"
   d="M38.174,5.422c0,2.996-3.146,5.424-7.022,5.424c-3.884,0-7.026-2.428-7.026-5.424    C24.126,2.426,27.268,0,31.152,0C35.028,0,38.174,2.426,38.174,5.422z"
   id="path4947" />
		<path
   fill="#E09732"
   d="M30.047,4.164c0-1.577,0.758-3.013,2.002-4.115C31.754,0.02,31.459,0,31.152,0    c-3.884,0-7.026,2.426-7.026,5.422c0,2.996,3.142,5.424,7.026,5.424c1.427,0,2.756-0.33,3.865-0.896    C32.097,8.999,30.047,6.763,30.047,4.164z"
   id="path4949" />
		<path
   fill="#FBB042"
   d="M33.594,45.859v-5.875c0-1.042-1.093-1.886-2.442-1.886c-1.353,0-2.446,0.844-2.446,1.886v5.875    c-2.675,0.767-4.58,2.749-4.58,5.078c0,2.998,3.142,5.424,7.026,5.424c3.876,0,7.022-2.426,7.022-5.424    C38.174,48.608,36.269,46.626,33.594,45.859z"
   id="path4951" />
		<path
   fill="#E09732"
   d="M26.894,50.938c0-2.329,1.913-4.312,4.581-5.078v-5.875c0-0.646,0.424-1.213,1.062-1.551    c-0.397-0.214-0.871-0.335-1.384-0.335c-1.353,0-2.446,0.844-2.446,1.886v5.875c-2.675,0.767-4.58,2.749-4.58,5.078    c0,2.998,3.142,5.424,7.026,5.424c0.474,0,0.937-0.039,1.384-0.104C29.32,55.759,26.894,53.565,26.894,50.938z"
   id="path4953" />
		<path
   fill="#FBB042"
   d="M31.152,43.822c10.688,0,20.658,1.011,29.099,2.753c-2.268-2.415-4.705-7.088-8.15-18.18    C45.262,6.359,39.138,8.105,39.138,8.105c-0.844-0.229-1.648-0.404-2.43-0.558c-1.163-0.303-2.963-0.616-5.334-0.606    c-0.074-0.004-0.148-0.002-0.222-0.002c-0.078,0-0.148-0.002-0.226,0.002c-2.368-0.01-4.168,0.303-5.331,0.606    c-0.782,0.154-1.586,0.329-2.434,0.558c0,0-6.12-1.746-12.963,20.29c-3.441,11.092-5.883,15.769-8.146,18.18    C10.494,44.833,20.463,43.822,31.152,43.822z"
   id="path4955" />
		<path
   fill="#E09732"
   d="M23.601,30.965c1.326-22.633,7.765-21.814,7.765-21.814c0.777-0.348,1.52-0.636,2.251-0.904    c0.614-0.268,1.446-0.571,2.484-0.842c-1.147-0.25-2.729-0.47-4.728-0.464c-0.074-0.004-0.148-0.002-0.222-0.002    c-0.078,0-0.148-0.002-0.226,0.002c-2.368-0.01-4.168,0.303-5.331,0.606c-0.782,0.154-1.586,0.329-2.434,0.558    c0,0-6.12-1.746-12.963,20.29c-3.441,11.092-5.883,15.769-8.146,18.18c6.007-1.24,12.8-2.1,20.063-2.5    C22.75,41.05,23.251,36.874,23.601,30.965z"
   id="path4957" />
	</g>
	<path
   fill="#DF394C"
   d="M60.344,44.896c2.741,1.979,4.172,4.666,3.212,6.011l0,0c-0.969,1.342-3.975,0.828-6.715-1.143L3.709,11.46   C0.972,9.487-0.467,6.796,0.501,5.453l0,0C1.47,4.11,4.475,4.623,7.216,6.596L60.344,44.896z"
   id="path4959" />
</g>
</svg>
